X: 731
T: the Cameronian Reel
R: reel
%S: s:2 b:16(8+8)
B: Francis O'Neill: "The Dance Music of Ireland" (1907) #731
Z: Transcribed by Frank Nordberg - http://www.musicaviva.com
F: http://www.musicaviva.com/abc/tunes/ireland/oneill-1001/0731/oneill-1001-0731-1.abc
%m: Tn = (3n/o/n/
M: C|
L: 1/8
K: D
"^A"[|] dB \
| {B}A2 FA  DAFA | GFEF GBdB | TBAFA DAFA | GBAG FD :| HD2 |
"^B"\
[| Addc d2(cd) | edef gfed | (3(cBA) (eA) fAeA | fdef gfed ||
|| fgaf bage   | dfec defg | (3(agf) (ge) fdec | dABG F"^d.C."A |]
